src/images/user-logos/hasura.svg

<svg xmlns="http://www.w3.org/2000/svg" xmlns:xlink="http://www.w3.org/1999/xlink" width="200" height="80" version="1.2" viewBox="0 0 150 60"><defs><clipPath id="clip1"><path d="M 107 26 L 115.769531 26 L 115.769531 40 L 107 40 Z M 107 26"/></clipPath><clipPath id="clip2"><path d="M 34.089844 14.753906 L 61 14.753906 L 61 45.503906 L 34.089844 45.503906 Z M 34.089844 14.753906"/></clipPath></defs><g id="surface1"><path style="stroke:none;fill-rule:nonzero;fill:#202020;fill-opacity:1" d="M 68.816406 31.871094 L 67.308594 31.871094 C 67.082031 31.871094 66.898438 31.683594 66.898438 31.449219 L 66.898438 26.578125 C 66.898438 26.34375 66.71875 26.15625 66.492188 26.15625 L 65.164062 26.15625 C 64.933594 26.15625 64.753906 26.34375 64.753906 26.578125 L 64.753906 38.953125 C 64.753906 39.1875 64.933594 39.371094 65.164062 39.371094 L 66.492188 39.371094 C 66.71875 39.371094 66.898438 39.1875 66.898438 38.953125 L 66.898438 34.140625 C 66.898438 33.90625 67.082031 33.71875 67.308594 33.71875 L 68.816406 33.71875 C 69.046875 33.71875 69.226562 33.90625 69.226562 34.140625 L 69.226562 38.953125 C 69.226562 39.1875 69.410156 39.371094 69.636719 39.371094 L 70.964844 39.371094 C 71.191406 39.371094 71.375 39.1875 71.375 38.953125 L 71.375 26.578125 C 71.375 26.34375 71.191406 26.15625 70.964844 26.15625 L 69.636719 26.15625 C 69.410156 26.15625 69.226562 26.34375 69.226562 26.578125 L 69.226562 31.449219 C 69.226562 31.683594 69.042969 31.871094 68.816406 31.871094 Z M 68.816406 31.871094"/><path style="stroke:none;fill-rule:nonzero;fill:#202020;fill-opacity:1" d="M 75.511719 26.5 L 73.367188 38.878906 C 73.324219 39.132812 73.515625 39.371094 73.769531 39.371094 L 75.085938 39.371094 C 75.289062 39.371094 75.460938 39.222656 75.492188 39.019531 L 75.84375 36.75 C 75.875 36.542969 76.046875 36.398438 76.25 36.398438 L 77.914062 36.398438 C 78.113281 36.398438 78.28125 36.542969 78.316406 36.746094 L 78.699219 39.027344 C 78.734375 39.230469 78.90625 39.375 79.105469 39.375 L 80.441406 39.375 C 80.699219 39.375 80.890625 39.132812 80.84375 38.878906 L 78.546875 26.5 C 78.507812 26.304688 78.339844 26.160156 78.144531 26.160156 L 75.917969 26.160156 C 75.714844 26.15625 75.546875 26.304688 75.511719 26.5 Z M 77.472656 34.542969 L 76.652344 34.542969 C 76.402344 34.542969 76.210938 34.3125 76.25 34.054688 L 76.636719 29.515625 C 76.710938 29.046875 77.367188 29.042969 77.445312 29.507812 L 77.875 34.046875 C 77.921875 34.304688 77.726562 34.542969 77.472656 34.542969 Z M 77.472656 34.542969"/><path style="stroke:none;fill-rule:nonzero;fill:#202020;fill-opacity:1" d="M 86.625 31.707031 L 85.164062 31.707031 C 84.878906 31.707031 84.730469 31.574219 84.730469 31.289062 L 84.730469 28.433594 C 84.730469 28.148438 84.878906 28.011719 85.164062 28.011719 L 86.003906 28.011719 C 86.285156 28.011719 86.4375 28.148438 86.4375 28.433594 L 86.4375 29.789062 C 86.4375 30.023438 86.617188 30.207031 86.84375 30.207031 L 88.191406 30.207031 C 88.421875 30.207031 88.601562 30.023438 88.601562 29.789062 L 88.601562 28.144531 C 88.601562 26.847656 87.898438 26.160156 86.566406 26.160156 L 84.601562 26.160156 C 83.269531 26.160156 82.566406 26.847656 82.566406 28.144531 L 82.566406 31.535156 C 82.566406 32.84375 83.257812 33.539062 84.5625 33.539062 L 86.046875 33.539062 C 86.328125 33.539062 86.457031 33.664062 86.457031 33.957031 L 86.457031 37.101562 C 86.457031 37.394531 86.328125 37.527344 86.046875 37.527344 L 85.203125 37.527344 C 84.921875 37.527344 84.773438 37.390625 84.773438 37.101562 L 84.773438 35.746094 C 84.773438 35.511719 84.589844 35.328125 84.363281 35.328125 L 83.015625 35.328125 C 82.789062 35.328125 82.605469 35.511719 82.605469 35.746094 L 82.605469 37.390625 C 82.605469 38.6875 83.308594 39.371094 84.640625 39.371094 L 86.585938 39.371094 C 87.929688 39.371094 88.644531 38.6875 88.644531 37.390625 L 88.644531 33.691406 C 88.640625 32.390625 87.945312 31.707031 86.625 31.707031 Z M 86.625 31.707031"/><path style="stroke:none;fill-rule:nonzero;fill:#202020;fill-opacity:1" d="M 94.746094 37.101562 C 94.746094 37.394531 94.621094 37.523438 94.3125 37.523438 L 93.171875 37.523438 C 92.890625 37.523438 92.738281 37.390625 92.738281 37.101562 L 92.738281 26.578125 C 92.738281 26.34375 92.558594 26.15625 92.328125 26.15625 L 90.984375 26.15625 C 90.753906 26.15625 90.574219 26.34375 90.574219 26.578125 L 90.574219 37.386719 C 90.574219 38.683594 91.285156 39.367188 92.632812 39.367188 L 94.859375 39.367188 C 96.203125 39.367188 96.914062 38.683594 96.914062 37.386719 L 96.914062 26.578125 C 96.914062 26.34375 96.734375 26.15625 96.507812 26.15625 L 95.160156 26.15625 C 94.933594 26.15625 94.75 26.34375 94.75 26.578125 L 94.75 37.101562 Z M 94.746094 37.101562"/><path style="stroke:none;fill-rule:nonzero;fill:#202020;fill-opacity:1" d="M 105.460938 32.167969 L 105.460938 28.140625 C 105.460938 26.84375 104.761719 26.15625 103.429688 26.15625 L 99.558594 26.15625 C 99.328125 26.15625 99.148438 26.34375 99.148438 26.578125 L 99.148438 38.953125 C 99.148438 39.1875 99.328125 39.371094 99.558594 39.371094 L 100.882812 39.371094 C 101.113281 39.371094 101.292969 39.1875 101.292969 38.953125 L 101.292969 34.589844 C 101.292969 34.355469 101.476562 34.171875 101.703125 34.171875 C 101.871094 34.171875 102.027344 34.28125 102.085938 34.445312 L 103.773438 39.09375 C 103.828125 39.261719 103.984375 39.367188 104.152344 39.367188 L 105.582031 39.367188 C 105.871094 39.367188 106.070312 39.070312 105.964844 38.796875 L 104.328125 34.480469 C 104.246094 34.269531 104.351562 34.042969 104.546875 33.941406 C 105.148438 33.644531 105.460938 33.039062 105.460938 32.167969 Z M 103.316406 28.429688 L 103.316406 31.921875 C 103.316406 32.207031 103.164062 32.339844 102.882812 32.339844 L 101.699219 32.339844 C 101.472656 32.339844 101.289062 32.152344 101.289062 31.921875 L 101.289062 28.425781 C 101.289062 28.191406 101.472656 28.003906 101.699219 28.003906 L 102.882812 28.003906 C 103.164062 28.003906 103.316406 28.144531 103.316406 28.429688 Z M 103.316406 28.429688"/><g clip-path="url(#clip1)" clip-rule="nonzero"><path style="stroke:none;fill-rule:nonzero;fill:#202020;fill-opacity:1" d="M 112.570312 26.15625 L 110.34375 26.15625 C 110.144531 26.15625 109.976562 26.304688 109.941406 26.507812 L 107.796875 38.882812 C 107.753906 39.140625 107.945312 39.375 108.199219 39.375 L 109.515625 39.375 C 109.71875 39.375 109.890625 39.226562 109.921875 39.023438 L 110.273438 36.753906 C 110.304688 36.546875 110.476562 36.402344 110.679688 36.402344 L 112.339844 36.402344 C 112.542969 36.402344 112.710938 36.546875 112.746094 36.75 L 113.128906 39.03125 C 113.164062 39.234375 113.332031 39.378906 113.535156 39.378906 L 114.871094 39.378906 C 115.128906 39.378906 115.320312 39.140625 115.273438 38.882812 L 112.972656 26.507812 C 112.933594 26.300781 112.765625 26.15625 112.570312 26.15625 Z M 111.898438 34.542969 L 111.078125 34.542969 C 110.828125 34.542969 110.636719 34.3125 110.675781 34.054688 L 111.0625 29.914062 C 111.136719 29.445312 111.792969 29.441406 111.871094 29.90625 L 112.300781 34.046875 C 112.34375 34.304688 112.152344 34.542969 111.898438 34.542969 Z M 111.898438 34.542969"/></g><g clip-path="url(#clip2)" clip-rule="nonzero"><path style="stroke:none;fill-rule:nonzero;fill:#202020;fill-opacity:1" d="M 59.46875 24.945312 C 60.324219 22.828125 60.34375 18.488281 59.207031 15.121094 C 58.914062 14.515625 58.03125 14.699219 57.988281 15.375 L 57.976562 15.597656 C 57.777344 18.761719 56.640625 20.511719 54.964844 21.347656 C 54.691406 21.488281 54.25 21.449219 53.988281 21.28125 C 51.992188 19.992188 49.628906 19.246094 47.09375 19.246094 C 44.554688 19.246094 42.1875 19.996094 40.1875 21.292969 C 39.933594 21.457031 39.617188 21.496094 39.332031 21.386719 C 37.621094 20.730469 36.421875 18.832031 36.21875 15.601562 L 36.207031 15.375 C 36.164062 14.699219 35.277344 14.515625 34.984375 15.121094 C 33.847656 18.496094 33.871094 22.839844 34.726562 24.953125 C 35.15625 26.011719 35.179688 27.203125 34.820312 28.292969 C 34.367188 29.679688 34.132812 31.167969 34.15625 32.71875 C 34.265625 39.71875 40.089844 45.667969 46.921875 45.761719 C 54.148438 45.859375 60.039062 39.886719 60.039062 32.503906 C 60.039062 31.027344 59.804688 29.609375 59.371094 28.28125 C 59.011719 27.199219 59.042969 26.007812 59.46875 24.945312 Z M 46.910156 42.589844 C 41.644531 42.488281 37.351562 38.089844 37.253906 32.695312 C 37.148438 26.972656 41.695312 22.3125 47.28125 22.417969 C 52.546875 22.515625 56.839844 26.917969 56.9375 32.3125 C 57.042969 38.03125 52.496094 42.695312 46.910156 42.589844 Z M 46.910156 42.589844"/></g><path style="stroke:none;fill-rule:nonzero;fill:#202020;fill-opacity:1" d="M 48.617188 31.421875 L 46.3125 27.75 C 45.941406 27.15625 45.167969 26.984375 44.589844 27.367188 C 44.230469 27.601562 44.015625 28.007812 44.015625 28.46875 C 44.015625 28.710938 44.105469 28.953125 44.234375 29.15625 L 45.808594 31.667969 C 45.921875 31.851562 45.902344 32.09375 45.757812 32.253906 L 43.324219 35.003906 C 42.863281 35.523438 42.898438 36.332031 43.410156 36.808594 C 43.648438 37.027344 43.953125 37.144531 44.273438 37.136719 C 44.613281 37.132812 44.941406 36.980469 45.171875 36.71875 L 46.976562 34.546875 C 47.113281 34.375 47.371094 34.390625 47.492188 34.570312 L 48.769531 36.457031 C 48.859375 36.605469 48.972656 36.738281 49.109375 36.839844 C 49.550781 37.15625 50.097656 37.148438 50.503906 36.882812 C 50.871094 36.648438 51.089844 36.246094 51.089844 35.789062 C 51.089844 35.542969 51.007812 35.304688 50.878906 35.097656 Z M 48.617188 31.421875"/></g></svg>

<svg version="1.2" viewBox="0 0 150 60"><defs><clipPath id="a"><path d="M107 26h8.77v14H107zm0 0"/></clipPath><clipPath id="b"><path d="M34.09 14.754H61v30.75H34.09zm0 0"/></clipPath></defs><path d="M68.816 31.871H67.31a.415.415 0 01-.41-.422v-4.87a.412.412 0 00-.407-.423h-1.328c-.23 0-.41.188-.41.422v12.375c0 .234.18.418.41.418h1.328a.409.409 0 00.406-.418v-4.812c0-.235.184-.422.41-.422h1.508c.23 0 .41.187.41.422v4.812c0 .234.184.418.41.418h1.329c.226 0 .41-.184.41-.418V26.578a.415.415 0 00-.41-.422h-1.328a.415.415 0 00-.41.422v4.871a.415.415 0 01-.41.422zM82.208 21.13l66.671 44.25a.418.418 0 00.403.492h1.316a.411.411 0 00.406-.351l.352-2.27a.408.408 0 01.406-.352h1.664c.2 0 .367.145.402.348l.383 2.281a.414.414 0 00.406.348h1.336c.258 0 .45-.242.403-.496L78.547 26.5a.417.417 0 00-.402-.34h-2.227a.408.408 0 00-.406.34zm70.777 39.914h-.82a.417.417 0 01-.403-.488l.387-4.54c.074-.468.73-.472.808-.007l.43 4.539a.418.418 0 01-.402.496zm18.304-5.672l76.012 34.543c-.285 0-.434-.133-.434-.418v-2.855c0-.286.149-.422.434-.422h.84c.281 0 .433.136.433.422v1.355c0 .234.18.418.407.418h1.347a.41.41 0 00.41-.418v-1.644c0-1.297-.703-1.985-2.035-1.985h-1.964c-1.332 0-2.036.688-2.036 1.985v3.39c0 1.309.692 2.004 1.996 2.004h1.485c.281 0 .41.125.41.418v3.145c0 .293-.129.425-.41.425h-.844c-.281 0-.43-.136-.43-.425v-1.356a.412.412 0 00-.41-.418h-1.347a.412.412 0 00-.41.418v1.645c0 1.297.703 1.98 2.035 1.98h1.945c1.344 0 2.059-.684 2.059-1.98v-3.7c-.004-1.3-.7-1.984-2.02-1.984zm9.051 21.668c9.152-2.543 9.027-2.415 8.719-2.415h-1.141c-.281 0-.434-.132-.434-.421V26.578a.413.413 0 00-.41-.422h-1.344c-.23 0-.41.188-.41.422v10.809c0 1.297.711 1.98 2.059 1.98h2.226c1.344 0 2.055-.683 2.055-1.98V26.578a.412.412 0 00-.406-.422H95.16a.415.415 0 00-.41.422v10.524zm39.734-15.54l85.594 35.91c0-1.296-.7-1.984-2.031-1.984h-3.871c-.23 0-.41.188-.41.422v12.375c0 .234.18.418.41.418h1.324a.41.41 0 00.41-.418V34.59c0-.235.184-.418.41-.418.168 0 .324.11.383.273l1.687 4.649a.398.398 0 00.38.273h1.429c.29 0 .488-.297.383-.57l-1.637-4.317a.434.434 0 01.219-.539c.601-.296.914-.902.914-1.773zm83.45 36.2v3.492c0 .285-.153.418-.434.418h-1.184a.414.414 0 01-.41-.418v-3.496c0-.235.184-.422.41-.422h1.184c.281 0 .433.14.433.426zm0 0" style="stroke:none;fill-rule:nonzero;fill:#202020;fill-opacity:1"/><g clip-path="url(#a)"><path d="M112.57 26.156h-2.226c-.2 0-.367.149-.403.352l-2.144 12.375a.416.416 0 00.402.492h1.317a.411.411 0 00.406-.352l.351-2.27a.408.408 0 01.407-.35h1.66c.203 0 .37.144.406.347l.383 2.281a.411.411 0 00.406.348h1.336c.258 0 .45-.238.402-.496l-2.3-12.375a.416.416 0 00-.403-.352zm-.672 8.387h-.82a.417.417 0 01-.402-.488l.386-4.14c.075-.47.731-.474.81-.009l.429 4.14a.42.42 0 01-.403.497zm0 0" style="stroke:none;fill-rule:nonzero;fill:#202020;fill-opacity:1"/></g><g clip-path="url(#b)"><path d="M59.469 24.945c.855-2.117.875-6.457-.262-9.824-.293-.605-1.176-.422-1.219.254l-.011.223c-.2 3.164-1.336 4.914-3.012 5.75-.274.14-.715.101-.977-.067a12.66 12.66 0 00-6.894-2.035c-2.54 0-4.907.75-6.907 2.047a.949.949 0 01-.855.094c-1.71-.657-2.91-2.555-3.113-5.785l-.012-.227c-.043-.676-.93-.86-1.223-.254-1.136 3.375-1.113 7.719-.257 9.832a4.86 4.86 0 01.093 3.34 13.56 13.56 0 00-.664 4.426c.11 7 5.934 12.949 12.766 13.043 7.226.097 13.117-5.875 13.117-13.258 0-1.477-.234-2.895-.668-4.223a4.874 4.874 0 01.098-3.336zM46.91 42.59c-5.265-.102-9.558-4.5-9.656-9.895-.106-5.722 4.441-10.383 10.027-10.277 5.266.098 9.559 4.5 9.657 9.895.105 5.718-4.442 10.382-10.028 10.277zm0 0" style="stroke:none;fill-rule:nonzero;fill:#202020;fill-opacity:1"/></g><path d="M48.617 31.422l-2.304-3.672a1.227 1.227 0 00-1.723-.383c-.36.235-.574.64-.574 1.102 0 .242.09.484.218.687l1.575 2.512a.494.494 0 01-.051.586l-2.434 2.75a1.3 1.3 0 00.086 1.805c.238.218.543.336.863.328.34-.004.668-.157.899-.418l1.805-2.172a.318.318 0 01.515.023l1.278 1.887a1.226 1.226 0 001.734.426c.367-.235.586-.637.586-1.094 0-.246-.082-.484-.211-.691zm0 0" style="stroke:none;fill-rule:nonzero;fill:#202020;fill-opacity:1"/></svg>
